images/wholesale-icon.svg

<?xml version="1.0" encoding="UTF-8"?>
<svg width="132px" height="127px" viewBox="0 0 132 127" version="1.1" xmlns="http://www.w3.org/2000/svg" xmlns:xlink="http://www.w3.org/1999/xlink">
    <!-- Generator: Sketch 61.2 (89653) - https://sketch.com -->
    <title>Shape</title>
    <desc>Created with Sketch.</desc>
    <g id="Page-1" stroke="none" stroke-width="1" fill="none" fill-rule="evenodd">
        <g id="Desktop-HD" transform="translate(-215.000000, -2276.000000)" fill="#4E2164" fill-rule="nonzero">
            <g id="segments" transform="translate(103.000000, 2072.000000)">
                <g id="wholesaler" transform="translate(112.000000, 204.000000)">
                    <path d="M121,122.605521 L121,31.6400308 L66,0 L11,31.6400308 L11,122.605521 L0,122.605521 L0,127 L132,127 L132,122.605521 L121,122.605521 Z M85.8,45.7021475 L105.820215,45.7021475 C106.920215,45.7021475 107.8,46.8007671 107.8,47.8993868 L107.8,58.8855831 L85.8,58.8855831 L85.8,45.7021475 Z M85.8,63.2800616 L107.8,63.2800616 L107.8,76.4634971 L85.8,76.4634971 L85.8,63.2800616 Z M85.8,80.8579756 L107.8,80.8579756 L107.8,94.0414112 L85.8,94.0414112 L85.8,80.8579756 Z M59.4,76.4634971 L59.4,63.2800616 L81.4,63.2800616 L81.4,76.4634971 L59.4,76.4634971 Z M81.4,80.8579756 L81.4,94.0414112 L59.4,94.0414112 L59.4,80.8579756 L81.4,80.8579756 Z M59.4,58.8855831 L59.4,47.8993868 C59.4,46.8007671 60.2797852,45.7021475 61.3797852,45.7021475 L81.4,45.7021475 L81.4,58.8855831 L59.4,58.8855831 Z M52.8,15.8205517 L66,7.91027583 L79.2,15.8205517 L79.2,34.7159512 L52.8,34.7159512 L52.8,15.8205517 Z M33.6595705,66.5759205 C34.1,65.9171777 34.7595704,65.4773008 35.6404296,65.4773008 L46.2,65.4773008 L46.2,61.0828223 L50.6,61.0828223 L50.6,94.0414112 L19.1404296,94.0414112 L33.6595705,66.5759205 Z M35.2,122.605521 C31.4595705,122.605521 28.6,119.749539 28.6,116.013804 C28.6,112.27914 31.4595705,109.422086 35.2,109.422086 C38.9404296,109.422086 41.8,112.27914 41.8,116.013804 C41.8,119.749539 38.9404296,122.605521 35.2,122.605521 Z M92.4,122.605521 C88.6595705,122.605521 85.8,119.749539 85.8,116.013804 C85.8,112.27914 88.6595705,109.422086 92.4,109.422086 C96.1404296,109.422086 99,112.27914 99,116.013804 C99,119.749539 96.1404296,122.605521 92.4,122.605521 Z M114.4,111.619325 C114.4,112.937883 113.520215,113.816564 112.2,113.816564 L103.179785,113.816564 C101.85957,107.884662 96.1404295,103.928988 90.2,105.247546 C85.8,106.126227 82.5,109.422086 81.6202148,113.816564 L45.9797852,113.816564 C44.6595705,107.884662 38.9404296,103.928988 33,105.247546 C28.6,106.126227 25.3,109.422086 24.4202148,113.816564 L19.8,113.816564 C18.4797852,113.816564 17.6,112.937883 17.6,111.619325 L17.6,98.4358897 L112.2,98.4358897 C113.520215,98.4358897 114.4,99.3156434 114.4,100.633129 L114.4,111.619325 Z" id="Shape"></path>
                </g>
            </g>
        </g>
    </g>
</svg>

<svg width="132" height="127" xmlns="http://www.w3.org/2000/svg"><path d="M121 122.606V31.64L66 0 11 31.64v90.966H0V127h132v-4.394h-11zM85.8 45.702h20.02c1.1 0 1.98 1.099 1.98 2.197v10.987h-22V45.702zm0 17.578h22v13.183h-22V63.28zm0 17.578h22v13.183h-22V80.858zm-26.4-4.395V63.28h22v13.183h-22zm22 4.395v13.183h-22V80.858h22zm-22-21.972V47.899c0-1.098.88-2.197 1.98-2.197H81.4v13.184h-22zM52.8 15.82L66 7.91l13.2 7.91v18.895H52.8V15.821zM33.66 66.576c.44-.659 1.1-1.099 1.98-1.099H46.2v-4.394h4.4V94.04H19.14l14.52-27.465zm1.54 56.03c-3.74 0-6.6-2.856-6.6-6.592 0-3.735 2.86-6.592 6.6-6.592 3.74 0 6.6 2.857 6.6 6.592 0 3.736-2.86 6.592-6.6 6.592zm57.2 0c-3.74 0-6.6-2.856-6.6-6.592 0-3.735 2.86-6.592 6.6-6.592 3.74 0 6.6 2.857 6.6 6.592 0 3.736-2.86 6.592-6.6 6.592zm22-10.987c0 1.319-.88 2.198-2.2 2.198h-9.02c-1.32-5.932-7.04-9.888-12.98-8.57-4.4.88-7.7 4.175-8.58 8.57H45.98c-1.32-5.932-7.04-9.888-12.98-8.57-4.4.88-7.7 4.175-8.58 8.57H19.8c-1.32 0-2.2-.88-2.2-2.198V98.436h94.6c1.32 0 2.2.88 2.2 2.197v10.986z" fill="#4E2164"/></svg>
